remix/System/delete-bin-3-line.svg

<svg viewBox="0 0 24 24" xmlns="http://www.w3.org/2000/svg"><path fill="none" d="M0 0h24v24H0Z"/><path d="M20 7v13 0c0 1.1-.9 2-2 2H6v0c-1.11 0-2-.9-2-2V7H2V5h20v2h-2ZM6 7v13h12V7H6Zm5 2h2v2h-2V9Zm0 3h2v2h-2v-2Zm0 3h2v2h-2v-2ZM7 2h10v2H7V2Z"/></svg>

<svg viewBox="0 0 24 24" fill="currentColor" xmlns="http://www.w3.org/2000/svg"><path d="M20 7V20C20 21.1046 19.1046 22 18 22H6C4.89543 22 4 21.1046 4 20V7H2V5H22V7H20ZM6 7V20H18V7H6ZM11 9H13V11H11V9ZM11 12H13V14H11V12ZM11 15H13V17H11V15ZM7 2H17V4H7V2Z"/></svg>
